Sweet-Rainbow/icons/timeshift.svg

<?xml version="1.0" encoding="UTF-8" standalone="no"?>
<!-- Generator: Gravit.io -->

<svg
   xmlns:dc="http://purl.org/dc/elements/1.1/"
   xmlns:cc="http://creativecommons.org/ns#"
   xmlns:rdf="http://www.w3.org/1999/02/22-rdf-syntax-ns#"
   xmlns:svg="http://www.w3.org/2000/svg"
   xmlns="http://www.w3.org/2000/svg"
   xmlns:sodipodi="http://sodipodi.sourceforge.net/DTD/sodipodi-0.dtd"
   xmlns:inkscape="http://www.inkscape.org/namespaces/inkscape"
   style="isolation:isolate"
   viewBox="0 0 36 36"
   width="48"
   height="48"
   version="1.1"
   id="svg9"
   sodipodi:docname="timeshift.svg"
   inkscape:version="0.92.4 (5da689c313, 2019-01-14)">
  <metadata
     id="metadata15">
    <rdf:RDF>
      <cc:Work
         rdf:about="">
        <dc:format>image/svg+xml</dc:format>
        <dc:type
           rdf:resource="http://purl.org/dc/dcmitype/StillImage" />
        <dc:title></dc:title>
      </cc:Work>
    </rdf:RDF>
  </metadata>
  <defs
     id="defs13" />
  <sodipodi:namedview
     pagecolor="#ffffff"
     bordercolor="#666666"
     borderopacity="1"
     objecttolerance="10"
     gridtolerance="10"
     guidetolerance="10"
     inkscape:pageopacity="0"
     inkscape:pageshadow="2"
     inkscape:window-width="640"
     inkscape:window-height="480"
     id="namedview11"
     showgrid="false"
     inkscape:zoom="29.365243"
     inkscape:cx="25.325443"
     inkscape:cy="32"
     inkscape:current-layer="svg9"
     units="px" />
  <linearGradient
     id="_lgradient_3"
     x1="0"
     y1="0.5"
     x2="0.90748805"
     y2="0.92007786"
     gradientTransform="scale(48)"
     gradientUnits="userSpaceOnUse">
    <stop
       offset="0%"
       stop-opacity="1"
       style="stop-color:rgb(255,65,108)"
       id="stop2" />
    <stop
       offset="84.34782608695653%"
       stop-opacity="1"
       style="stop-color:rgb(255,75,43)"
       id="stop4" />
  </linearGradient>
  <g
     id="g826"
     transform="scale(0.75)">
    <path
       id="path7"
       d="m 25.112,34.869 c -3.098,-1.093 -4.722,-1.416 -5.996,-1.376 -1.353,0.114 -2.505,0.522 -3.832,0.949 -0.727,0.207 -0.728,0.196 -0.048,-0.547 0.381,-0.416 1.727,-1.408 2.992,-2.204 1.722,-1.083 2.676,-1.362 3.793,-1.362 1.76,0 2.925,-1.048 2.548,-2.193 -1.413,-2.25 -4.791,-5.188 -4.791,-5.989 0,-0.67 1.306,-2.372 2.871,-3.987 0.692,-0.715 0.991,-1.287 0.775,-1.481 -0.45,-0.405 -4.764,-1.113 -6.779,-1.113 -1.61,0 -3.03,0.494 -3.03,1.534 0,0.289 0.198,1.09 0.826,1.781 l 1.142,1.256 c -0.755,0.843 -1.078,1.756 -2.378,1.756 -1.864,0 -1.864,-1.476 -1.854,-2.911 0.263,-3.516 5.75,-7.04 10.94,-6.536 3.282,0.32 6.159,0.781 9.301,1.011 1.749,0.084 2.845,-0.345 4.484,-0.952 1.188,-0.44 0.431,0.976 -1.348,2.52 -2.14,1.857 -3.405,2.947 -6.832,2.639 -2.563,-0.231 -3.265,-0.365 -3.852,1.165 -0.466,1.214 0.043,2.371 2.463,4.842 1.194,1.218 1.715,2.005 1.707,2.775 -0.008,0.69 -0.428,1.365 -1.354,2.324 -0.817,0.846 -1.284,1.687 -1.168,1.87 0.367,0.572 2.794,1.798 4.116,1.798 0.697,0 2.013,-0.191 2.796,-0.577 1.323,-0.652 1.885,-0.646 1.885,0.02 0,0.527 -4.166,3.727 -6.549,3.721 -0.433,-10e-4 -1.706,-0.337 -2.828,-0.733 z M 30.22,4.99 v 0 c 1.049,0.342 2.178,-0.231 2.52,-1.28 v 0 C 33.082,2.661 32.509,1.532 31.46,1.19 v 0 C 29.06,0.4 26.55,0 24.03,0 15.68,0 7.9,4.34 3.54,11.46 1.23,15.22 0,19.56 0,23.97 0,32.32 4.34,40.1 11.46,44.46 15.22,46.77 19.55,48 23.97,48 32.32,48 40.1,43.66 44.46,36.54 46.77,32.78 48,28.45 48,24.03 48,18.39 46.02,12.92 42.41,8.59 v 0 C 41.698,7.746 40.432,7.634 39.585,8.34 v 0 c -0.847,0.706 -0.957,1.97 -0.245,2.82 v 0 C 42.35,14.77 44,19.32 44,24.03 44,27.7 42.98,31.31 41.05,34.45 37.41,40.38 30.93,44 23.97,44 20.29,44 16.69,42.98 13.55,41.05 7.62,37.41 4,30.93 4,23.97 4,20.3 5.02,16.69 6.95,13.55 10.59,7.62 17.07,4 24.03,4 c 2.1,0 4.19,0.33 6.19,0.99 z"
       inkscape:connector-curvature="0"
       style="fill:url(#_lgradient_3);fill-rule:evenodd" />
  </g>
</svg>

<?xml version="1.0" encoding="UTF-8" standalone="no"?><!-- Generator: Gravit.io --><svg xmlns="http://www.w3.org/2000/svg" xmlns:xlink="http://www.w3.org/1999/xlink" style="isolation:isolate" viewBox="0 0 48 48" width="48pt" height="48pt"><linearGradient id="_lgradient_3" x1="0" y1="0.5" x2="0.9074880558539661" y2="0.9200778838291643" gradientTransform="matrix(48,0,0,48,0,0)" gradientUnits="userSpaceOnUse"><stop offset="0%" stop-opacity="1" style="stop-color:rgb(255,65,108)"/><stop offset="84.34782608695653%" stop-opacity="1" style="stop-color:rgb(255,75,43)"/></linearGradient><path d=" M 25.112 34.869 C 22.014 33.776 20.39 33.453 19.116 33.493 C 17.763 33.607 16.611 34.015 15.284 34.442 C 14.557 34.649 14.556 34.638 15.236 33.895 C 15.617 33.479 16.963 32.487 18.228 31.691 C 19.95 30.608 20.904 30.329 22.021 30.329 C 23.781 30.329 24.946 29.281 24.569 28.136 C 23.156 25.886 19.778 22.948 19.778 22.147 C 19.778 21.477 21.084 19.775 22.649 18.16 C 23.341 17.445 23.64 16.873 23.424 16.679 C 22.974 16.274 18.66 15.566 16.645 15.566 C 15.035 15.566 13.615 16.06 13.615 17.1 C 13.615 17.389 13.813 18.19 14.441 18.881 L 15.583 20.137 C 14.828 20.98 14.505 21.893 13.205 21.893 C 11.341 21.893 11.341 20.417 11.351 18.982 C 11.614 15.466 17.101 11.942 22.291 12.446 C 25.573 12.766 28.45 13.227 31.592 13.457 C 33.341 13.541 34.437 13.112 36.076 12.505 C 37.264 12.065 36.507 13.481 34.728 15.025 C 32.588 16.882 31.323 17.972 27.896 17.664 C 25.333 17.433 24.631 17.299 24.044 18.829 C 23.578 20.043 24.087 21.2 26.507 23.671 C 27.701 24.889 28.222 25.676 28.214 26.446 C 28.206 27.136 27.786 27.811 26.86 28.77 C 26.043 29.616 25.576 30.457 25.692 30.64 C 26.059 31.212 28.486 32.438 29.808 32.438 C 30.505 32.438 31.821 32.247 32.604 31.861 C 33.927 31.209 34.489 31.215 34.489 31.881 C 34.489 32.408 30.323 35.608 27.94 35.602 C 27.507 35.601 26.234 35.265 25.112 34.869 Z  M 30.22 4.99 L 30.22 4.99 C 31.269 5.332 32.398 4.759 32.74 3.71 L 32.74 3.71 C 33.082 2.661 32.509 1.532 31.46 1.19 L 31.46 1.19 C 29.06 0.4 26.55 0 24.03 0 C 15.68 0 7.9 4.34 3.54 11.46 C 1.23 15.22 0 19.56 0 23.97 C 0 32.32 4.34 40.1 11.46 44.46 C 15.22 46.77 19.55 48 23.97 48 C 32.32 48 40.1 43.66 44.46 36.54 C 46.77 32.78 48 28.45 48 24.03 C 48 18.39 46.02 12.92 42.41 8.59 L 42.41 8.59 C 41.698 7.746 40.432 7.634 39.585 8.34 L 39.585 8.34 C 38.738 9.046 38.628 10.31 39.34 11.16 L 39.34 11.16 C 42.35 14.77 44 19.32 44 24.03 C 44 27.7 42.98 31.31 41.05 34.45 C 37.41 40.38 30.93 44 23.97 44 C 20.29 44 16.69 42.98 13.55 41.05 C 7.62 37.41 4 30.93 4 23.97 C 4 20.3 5.02 16.69 6.95 13.55 C 10.59 7.62 17.07 4 24.03 4 C 26.13 4 28.22 4.33 30.22 4.99 Z " fill-rule="evenodd" fill="url(#_lgradient_3)"/></svg>
